X:177 
T:Priest in His Boots, The  
B:CRE3.008 (Sagairt na mBuataisi) 
F:file ID: cre.3/177priest
R:jig
Q:160
M:6/8
K:G
AFA DFA|dBG AFD|~G3 BAB|cBc AFG|
A2A DFG|dBG AFD|~G3 Add|cAF G3:|
ded cdc|BAG AFD|~G3 BAB|cBc ABc|
ded c2d|BAG AFD|~G3 Add|cAF G3:|

%%%

